X: 1
T: THE RAKISH HIGHLANDER -- REEL
B: Ryan's Mammoth Collection of Fiddle Tunes
R: reel
M: C|
L: 1/8
Z: Contributed 20000509024532 by Ivan Bradley bradleyi:peoplepc.com
K: G
vD2 BA (Bd).e.f | deBd AFDF | D2 BA (Bd).e.f | dBAF BE Ez |
D2 BA (Bd).e.f | deBd AFDF | D2 BA (Bd).e.f | dBAF BEE "^H"|]
ue |\
eB B2 efge | fdad bdad | eB B2 efge | fedf e2 ef |
eB B2 efge | fdad bdad | gafg egfe | dBAF BE E2 |]
